X:81
T: JA WIR SIND ARM UND IHR SEID REICH
N: F0188
O: Europa, Mitteleuropa, Deutschland; Schottland?
R: Liebes - Lied
M: 3/4
L: 1/16
K: F
E2 | F2A2G6E2 | F2d2c6
B2 | A2F2G6E2 | F2F2F6
E2 | F2A2G6E2 | F2d2c6
B2 | A2F2G6E2 | F2F2F6
c2 | c2c2c6d2 | d2d2d6
c2 | c2f2f6c2 | c2def6
E2 | F2A2G6E2 | F2d2c6
B2 | A2F2G6E2 | F2F2F4z2

@@@ Tune index: 5512
